styles/2/Numix/128/places/default-folder-documents.svg

<?xml version="1.0" encoding="UTF-8" standalone="no"?>
<svg
   xmlns:dc="http://purl.org/dc/elements/1.1/"
   xmlns:cc="http://creativecommons.org/ns#"
   xmlns:rdf="http://www.w3.org/1999/02/22-rdf-syntax-ns#"
   xmlns:svg="http://www.w3.org/2000/svg"
   xmlns="http://www.w3.org/2000/svg"
   xmlns:sodipodi="http://sodipodi.sourceforge.net/DTD/sodipodi-0.dtd"
   xmlns:inkscape="http://www.inkscape.org/namespaces/inkscape"
   width="128px"
   height="128px"
   viewBox="0 0 128 128"
   version="1.1"
   id="svg25622"
   inkscape:version="0.91 r"
   sodipodi:docname="default-folder-documents.svg">
  <metadata
     id="metadata25635">
    <rdf:RDF>
      <cc:Work
         rdf:about="">
        <dc:format>image/svg+xml</dc:format>
        <dc:type
           rdf:resource="http://purl.org/dc/dcmitype/StillImage" />
      </cc:Work>
    </rdf:RDF>
  </metadata>
  <defs
     id="defs25633" />
  <sodipodi:namedview
     pagecolor="#ffffff"
     bordercolor="#666666"
     borderopacity="1"
     objecttolerance="10"
     gridtolerance="10"
     guidetolerance="10"
     inkscape:pageopacity="0"
     inkscape:pageshadow="2"
     inkscape:window-width="640"
     inkscape:window-height="480"
     id="namedview25631" />
  <g
     id="surface1">
    <path
       style=" stroke:none;fill-rule:nonzero;fill:rgb(91.372549%,69.019608%,50.196078%);fill-opacity:1;"
       d="M 18 16 C 15.070312 16 12 19.023438 12 22 L 12 24 L 6 24 C 3.058594 24 0 26.992188 0 30 L 0 106 C 0 110 2 112 6 112 L 122 112 C 125.136719 112 128 109.285156 128 106 L 128 40 C 128 36.988281 125.089844 34 122 34 L 116 34 L 116 22 C 116 19.078125 113.09375 16 110 16 Z M 18 16 "
       id="path25625" />
    <path
       style=" stroke:none;fill-rule:nonzero;fill:rgb(0%,0%,0%);fill-opacity:0.321569;"
       d="M 18 16 C 15.070312 16 12 19.023438 12 22 L 12 24 L 6 24 C 3.058594 24 0 26.992188 0 30 L 0 106 C 0 110 2 112 6 112 L 122 112 C 125.136719 112 128 109.285156 128 106 L 128 40 C 128 36.988281 125.089844 34 122 34 L 116 34 L 116 22 C 116 19.078125 113.09375 16 110 16 Z M 6 28 L 74 28 C 75.179688 28 76 29.03125 76 30 L 76 38 L 122 38 C 123.011719 38 124 39.015625 124 40 L 124 106 C 124 107.042969 123.042969 108 122 108 L 6 108 C 5.070312 108 4 107.207031 4 106 L 4 30 C 4 29.015625 5.03125 28 6 28 Z M 6 28 "
       id="path25627" />
    <path
       style=" stroke:none;fill-rule:nonzero;fill:rgb(0%,0%,0%);fill-opacity:0.321569;"
       d="M 48 46 C 43.566406 46 40 49.566406 40 54 L 40 94 C 40 98.433594 43.566406 102 48 102 L 80 102 C 84.433594 102 88 98.433594 88 94 L 88 66 L 68 46 Z M 48 54 L 68 54 L 68 66 L 80 66 L 80 94 L 48 94 Z M 53 70 C 52.445312 70 52 70.445312 52 71 L 52 73 C 52 73.554688 52.445312 74 53 74 L 67 74 C 67.554688 74 68 73.554688 68 73 L 68 71 C 68 70.445312 67.554688 70 67 70 Z M 53 78 C 52.445312 78 52 78.445312 52 79 L 52 81 C 52 81.554688 52.445312 82 53 82 L 75 82 C 75.554688 82 76 81.554688 76 81 L 76 79 C 76 78.445312 75.554688 78 75 78 Z M 53 86 C 52.445312 86 52 86.445312 52 87 L 52 89 C 52 89.554688 52.445312 90 53 90 L 75 90 C 75.554688 90 76 89.554688 76 89 L 76 87 C 76 86.445312 75.554688 86 75 86 Z M 53 86 "
       id="path25629" />
  </g>
</svg>

<svg xmlns="http://www.w3.org/2000/svg" viewBox="0 0 128 128">
 <g>
  <path d="m 18 16 c -2.93 0 -6 3.02 -6 6 l 0 2 l -6 0 c -2.941 0 -6 2.992 -6 6 l 0 76 c 0 4 2 6 6 6 l 116 0 c 3.137 0 6 -2.715 6 -6 l 0 -66 c 0 -3.01 -2.91 -6 -6 -6 l -6 0 l 0 -12 c 0 -2.922 -2.906 -6 -6 -6 m -92 0" style="fill:#e8b07f;fill-opacity:1;stroke:none;fill-rule:nonzero"/>
  <path d="m 18 16 c -2.93 0 -6 3.02 -6 6 l 0 2 l -6 0 c -2.941 0 -6 2.992 -6 6 l 0 76 c 0 4 2 6 6 6 l 116 0 c 3.137 0 6 -2.715 6 -6 l 0 -66 c 0 -3.01 -2.91 -6 -6 -6 l -6 0 l 0 -12 c 0 -2.922 -2.906 -6 -6 -6 m -104 12 l 68 0 c 1.18 0 2 1.031 2 2 l 0 8 l 46 0 c 1.012 0 2 1.016 2 2 l 0 66 c 0 1.043 -0.957 2 -2 2 l -116 0 c -0.93 0 -2 -0.793 -2 -2 l 0 -76 c 0 -0.984 1.031 -2 2 -2 m 0 0" style="fill:#000;fill-opacity:0.322;stroke:none;fill-rule:nonzero"/>
  <path d="m 48 46 c -4.434 0 -8 3.566 -8 8 l 0 40 c 0 4.434 3.566 8 8 8 l 32 0 c 4.434 0 8 -3.566 8 -8 l 0 -28 l -20 -20 m -20 8 l 20 0 l 0 12 l 12 0 l 0 28 l -32 0 m 5 -24 c -0.555 0 -1 0.445 -1 1 l 0 2 c 0 0.555 0.445 1 1 1 l 14 0 c 0.555 0 1 -0.445 1 -1 l 0 -2 c 0 -0.555 -0.445 -1 -1 -1 m -14 8 c -0.555 0 -1 0.445 -1 1 l 0 2 c 0 0.555 0.445 1 1 1 l 22 0 c 0.555 0 1 -0.445 1 -1 l 0 -2 c 0 -0.555 -0.445 -1 -1 -1 m -22 8 c -0.555 0 -1 0.445 -1 1 l 0 2 c 0 0.555 0.445 1 1 1 l 22 0 c 0.555 0 1 -0.445 1 -1 l 0 -2 c 0 -0.555 -0.445 -1 -1 -1 m -22 0" style="fill:#000;fill-opacity:0.322;stroke:none;fill-rule:nonzero"/>
 </g>
</svg>
